X:1
T:title
M:4/4
Q:120
L:1/8
R:Reel
K:C
 _G _g _B ^F _d'4 |  ^d2 _G4 _Ac | B2 ^c2 _F3 _g |  _gF3 _Be _d _G |  _g3 ^C3 ^D2 |  ^D4A3 _C |  _f'3 ^dd' ^C _f ^c' |  ^e4g2f'2 | 